flaticon/grooming/eyelashes-1.svg

<svg xmlns="http://www.w3.org/2000/svg" width="32" height="32" viewBox="0 0 24 24">
    <path d="M 14.515625 20.800781 C 13.195312 20.441406 11.636719 20 10.273438 20 L 9.195312 20 C 6.476562 20 3.074219 23.199219 2.914062 23.320312 C 2.753906 23.480469 2.753906 23.71875 2.914062 23.878906 C 2.996094 23.960938 3.074219 24 3.195312 24 C 3.273438 24 3.394531 23.960938 3.476562 23.839844 C 3.515625 23.839844 6.792969 20.761719 9.195312 20.761719 L 10.316406 20.761719 C 11.554688 20.761719 13.035156 21.199219 14.316406 21.558594 C 14.515625 21.601562 14.714844 21.480469 14.792969 21.28125 C 14.835938 21.078125 14.714844 20.878906 14.515625 20.800781 Z M 14.515625 20.800781"/>
    <path d="M22.433594 13.199219C22.195312 13.160156 21.996094 13.320312 21.996094 13.558594 21.996094 13.558594 21.875 14.921875 21.273438 16.238281 20.515625 17.960938 19.273438 18.800781 17.59375 18.800781 17.53125 18.800781 17.46875 18.8125 17.417969 18.835938 16.769531 18.820312 16.207031 18.789062 15.714844 18.738281 19 16.878906 19.960938 9.984375 19.996094 9.640625 19.996094 9.441406 19.835938 9.238281 19.636719 9.199219 19.433594 9.199219 19.234375 9.359375 19.195312 9.558594 19.195312 9.640625 17.996094 18.398438 13.996094 18.398438 13.929688 18.398438 13.871094 18.410156 13.820312 18.433594 13.570312 18.375 13.34375 18.3125 13.128906 18.253906 16.636719 16.355469 16.792969 8.023438 16.792969 7.601562 16.792969 7.398438 16.636719 7.199219 16.394531 7.199219 16.195312 7.199219 15.996094 7.359375 15.996094 7.601562 15.996094 7.71875 15.792969 17.839844 11.59375 17.839844 11.554688 17.839844 11.511719 17.84375 11.476562 17.855469 11.1875 17.800781 10.894531 17.757812 10.601562 17.726562 13.730469 15.128906 12.832031 7.152344 12.792969 6.761719 12.753906 6.519531 12.554688 6.359375 12.355469 6.398438 12.113281 6.441406 11.953125 6.640625 11.996094 6.839844 11.996094 6.960938 13.074219 16.519531 9.074219 17.640625L8.421875 17.640625C10.820312 14.277344 8.871094 8.101562 8.792969 7.839844 8.714844 7.640625 8.476562 7.519531 8.273438 7.601562 8.074219 7.679688 7.953125 7.921875 8.035156 8.121094 8.035156 8.199219 10.144531 14.851562 7.332031 17.703125 7.097656 17.742188 6.863281 17.804688 6.625 17.882812 8.226562 14.382812 6.0625 9.695312 5.953125 9.480469 5.875 9.28125 5.636719 9.199219 5.433594 9.28125 5.234375 9.359375 5.15625 9.601562 5.234375 9.800781 5.234375 9.839844 7.773438 15.316406 5.304688 18.480469 5.21875 18.527344 5.136719 18.578125 5.054688 18.628906 5.71875 15.722656 3.65625 11.3125 3.554688 11.078125 3.476562 10.878906 3.234375 10.800781 3.035156 10.878906 2.835938 10.960938 2.753906 11.199219 2.835938 11.398438 3.628906 13.066406 5.328125 17.765625 3.753906 19.519531 3.542969 19.679688 3.34375 19.84375 3.15625 20 3.515625 17.320312 1.234375 13.960938 1.113281 13.800781.996094 13.601562.753906 13.558594.554688 13.679688.394531 13.800781.355469 14.039062.476562 14.199219.515625 14.28125 3.792969 19.078125 1.753906 21.28125 1.714844 21.320312 1.714844 21.320312 1.714844 21.320312 1.554688 21.480469 1.554688 21.71875 1.714844 21.878906 1.792969 21.960938 1.914062 22 1.996094 22 2.113281 22 2.195312 21.960938 2.273438 21.917969 2.316406 21.878906 2.316406 21.878906 2.316406 21.878906 2.464844 21.730469 3.230469 20.953125 4.238281 20.175781 4.25 20.171875 4.261719 20.164062 4.273438 20.160156 4.285156 20.148438 4.292969 20.136719 4.304688 20.128906 5.417969 19.277344 6.8125 18.441406 7.996094 18.441406L9.074219 18.441406C10.355469 18.441406 11.59375 18.640625 12.835938 19 13.914062 19.320312 15.273438 19.640625 17.996094 19.640625 18.097656 19.640625 18.183594 19.609375 18.25 19.558594 22.394531 19.046875 22.792969 13.679688 22.792969 13.640625 22.835938 13.398438 22.675781 13.199219 22.433594 13.199219zM19.355469 1.199219C18.835938 1.199219 18.394531 1.640625 18.394531 2.160156L18.394531 2.398438 17.996094 2.398438 17.996094 2C17.996094 1.761719 17.835938 1.601562 17.59375 1.601562 17.355469 1.601562 17.195312 1.761719 17.195312 2L17.195312 2.398438 16.796875 2.398438 16.796875 2C16.796875 1.761719 16.636719 1.601562 16.394531 1.601562 16.15625 1.601562 15.996094 1.761719 15.996094 2L15.996094 2.398438 15.59375 2.398438 15.59375 1.601562C15.59375 1.359375 15.433594 1.199219 15.195312 1.199219 14.953125 1.199219 14.796875 1.359375 14.796875 1.601562L14.796875 2.398438 14.394531 2.398438 14.394531 1.199219C14.394531.960938 14.234375.800781 13.996094.800781 13.753906.800781 13.59375.960938 13.59375 1.199219L13.59375 2.398438 13.195312 2.398438 13.195312.800781C13.195312.558594 13.035156.398438 12.796875.398438 12.554688.398438 12.394531.558594 12.394531.800781L12.394531 2.398438 11.996094 2.398438 11.996094.398438C11.996094.160156 11.835938 0 11.59375 0 11.355469 0 11.195312.160156 11.195312.398438L11.195312 2.398438 10.796875 2.398438 10.796875.398438C10.796875.160156 10.636719 0 10.394531 0 10.15625 0 9.996094.160156 9.996094.398438L9.996094 2.398438 9.59375 2.398438 9.59375.398438C9.59375.160156 9.433594 0 9.195312 0 8.957031 0 8.796875.160156 8.796875.398438L8.796875 2.398438 8.394531 2.398438 8.394531.398438C8.394531.160156 8.234375 0 7.996094 0 7.753906 0 7.59375.160156 7.59375.398438L7.59375 2.398438 7.195312 2.398438 7.195312.800781C7.195312.558594 7.035156.398438 6.796875.398438 6.554688.398438 6.394531.558594 6.394531.800781L6.394531 2.398438 5.996094 2.398438 5.996094 1.199219C5.996094.960938 5.835938.800781 5.59375.800781 5.355469.800781 5.195312.960938 5.195312 1.199219L5.195312 2.398438 4.796875 2.398438 4.796875 1.601562C4.796875 1.359375 4.636719 1.199219 4.394531 1.199219 4.15625 1.199219 3.996094 1.359375 3.996094 1.601562L3.996094 2.398438 3.59375 2.398438 3.59375 2C3.59375 1.761719 3.4375 1.601562 3.195312 1.601562 2.957031 1.601562 2.796875 1.761719 2.796875 2L2.796875 2.398438C2.554688 2.398438 2.394531 2.558594 2.394531 2.800781 2.394531 3.039062 2.554688 3.199219 2.796875 3.199219L2.796875 3.601562C2.796875 3.839844 2.957031 4 3.195312 4 3.4375 4 3.59375 3.839844 3.59375 3.601562L3.59375 3.199219 3.996094 3.199219 3.996094 4C3.996094 4.238281 4.15625 4.398438 4.394531 4.398438 4.636719 4.398438 4.796875 4.238281 4.796875 4L4.796875 3.199219 5.195312 3.199219 5.195312 4.398438C5.195312 4.640625 5.355469 4.800781 5.59375 4.800781 5.835938 4.800781 5.996094 4.640625 5.996094 4.398438L5.996094 3.199219 6.394531 3.199219 6.394531 4.800781C6.394531 5.039062 6.554688 5.199219 6.796875 5.199219 7.035156 5.199219 7.195312 5.039062 7.195312 4.800781L7.195312 3.199219 7.59375 3.199219 7.59375 5.199219C7.59375 5.441406 7.753906 5.601562 7.996094 5.601562 8.234375 5.601562 8.394531 5.441406 8.394531 5.199219L8.394531 3.199219 8.796875 3.199219 8.796875 5.199219C8.796875 5.441406 8.957031 5.601562 9.195312 5.601562 9.433594 5.601562 9.59375 5.441406 9.59375 5.199219L9.59375 3.199219 9.996094 3.199219 9.996094 5.199219C9.996094 5.441406 10.15625 5.601562 10.394531 5.601562 10.636719 5.601562 10.796875 5.441406 10.796875 5.199219L10.796875 3.199219 11.195312 3.199219 11.195312 5.199219C11.195312 5.441406 11.355469 5.601562 11.59375 5.601562 11.835938 5.601562 11.996094 5.441406 11.996094 5.199219L11.996094 3.199219 12.394531 3.199219 12.394531 4.800781C12.394531 5.039062 12.554688 5.199219 12.796875 5.199219 13.035156 5.199219 13.195312 5.039062 13.195312 4.800781L13.195312 3.199219 13.59375 3.199219 13.59375 4.398438C13.59375 4.640625 13.753906 4.800781 13.996094 4.800781 14.234375 4.800781 14.394531 4.640625 14.394531 4.398438L14.394531 3.199219 14.796875 3.199219 14.796875 4C14.796875 4.238281 14.953125 4.398438 15.195312 4.398438 15.433594 4.398438 15.59375 4.238281 15.59375 4L15.59375 3.199219 15.996094 3.199219 15.996094 3.601562C15.996094 3.839844 16.15625 4 16.394531 4 16.636719 4 16.796875 3.839844 16.796875 3.601562L16.796875 3.199219 17.195312 3.199219 17.195312 3.601562C17.195312 3.839844 17.355469 4 17.59375 4 17.835938 4 17.996094 3.839844 17.996094 3.601562L17.996094 3.199219 18.394531 3.199219 18.394531 3.441406C18.394531 3.960938 18.835938 4.398438 19.355469 4.398438L23.59375 4.398438 23.59375 1.199219zM22.792969 3.601562L19.355469 3.601562C19.273438 3.601562 19.195312 3.519531 19.195312 3.441406L19.195312 2.160156C19.195312 2.078125 19.273438 2 19.355469 2L22.792969 2zM22.792969 3.601562"/>
</svg>

<svg xmlns="http://www.w3.org/2000/svg" width="32" height="32" viewBox="0 0 24 24">
    <path d="M14.516 20.8c-1.32-.359-2.88-.8-4.243-.8H9.195c-2.718 0-6.12 3.2-6.28 3.32a.385.385 0 0 0 0 .559.35.35 0 0 0 .563-.04c.038 0 3.315-3.077 5.717-3.077h1.121c1.239 0 2.72.437 4 .797.2.043.399-.079.477-.278a.428.428 0 0 0-.277-.48zm0 0"/>
    <path d="M22.434 13.2c-.239-.04-.438.12-.438.359 0 0-.121 1.363-.723 2.68-.757 1.722-2 2.562-3.68 2.562a.428.428 0 0 0-.175.035 21.933 21.933 0 0 1-1.703-.098c3.285-1.86 4.246-8.754 4.281-9.097a.47.47 0 0 0-.36-.442.467.467 0 0 0-.44.36c0 .082-1.2 8.84-5.2 8.84a.415.415 0 0 0-.176.035c-.25-.059-.476-.122-.691-.18 3.508-1.899 3.664-10.23 3.664-10.652a.398.398 0 1 0-.797 0c0 .117-.203 10.238-4.402 10.238a.386.386 0 0 0-.117.015 10.98 10.98 0 0 0-.875-.128c3.128-2.598 2.23-10.575 2.191-10.965-.04-.242-.238-.403-.438-.364-.242.043-.402.243-.359.442 0 .12 1.078 9.68-2.922 10.8h-.652c2.398-3.363.45-9.538.371-9.8-.078-.2-.316-.32-.52-.238-.199.078-.32.32-.238.52 0 .077 2.11 6.73-.703 9.581-.234.04-.469.102-.707.18 1.602-3.5-.563-8.188-.672-8.403-.078-.199-.316-.28-.52-.199-.199.078-.277.32-.199.52 0 .039 2.54 5.515.07 8.68-.085.046-.167.097-.25.148.665-2.906-1.398-7.317-1.5-7.55-.077-.2-.32-.278-.519-.2-.2.082-.281.32-.2.52.794 1.667 2.493 6.367.919 8.12-.211.16-.41.325-.598.481.36-2.68-1.922-6.04-2.043-6.2-.117-.198-.36-.241-.558-.12-.16.12-.2.36-.078.52.039.081 3.316 4.878 1.277 7.081l-.04.04a.385.385 0 0 0 0 .558c.079.082.2.121.282.121.117 0 .2-.04.277-.082l.043-.04c.149-.148.914-.925 1.922-1.702.012-.004.024-.012.035-.016.012-.012.02-.023.032-.031 1.113-.852 2.508-1.688 3.691-1.688h1.078c1.281 0 2.52.2 3.762.559 1.078.32 2.437.64 5.16.64a.411.411 0 0 0 .254-.081c4.145-.512 4.543-5.88 4.543-5.918.043-.243-.117-.442-.36-.442zm0 0M19.355 1.2c-.52 0-.96.44-.96.96v.238h-.399V2c0-.238-.16-.398-.402-.398-.239 0-.399.16-.399.398v.398h-.398V2c0-.238-.16-.398-.402-.398-.239 0-.399.16-.399.398v.398h-.402v-.796c0-.243-.16-.403-.399-.403-.242 0-.398.16-.398.403v.796h-.402V1.2c0-.238-.16-.398-.399-.398-.242 0-.402.16-.402.398v1.2h-.399V.8c0-.242-.16-.403-.398-.403-.242 0-.402.16-.402.403v1.597h-.399v-2c0-.238-.16-.398-.402-.398-.239 0-.399.16-.399.398v2h-.398v-2c0-.238-.16-.398-.402-.398-.239 0-.399.16-.399.398v2h-.402v-2C9.594.16 9.434 0 9.195 0c-.238 0-.398.16-.398.398v2h-.402v-2C8.395.16 8.235 0 7.996 0c-.242 0-.402.16-.402.398v2h-.399V.801c0-.242-.16-.403-.398-.403-.242 0-.402.16-.402.403v1.597h-.399V1.2c0-.238-.16-.398-.402-.398-.239 0-.399.16-.399.398v1.2h-.398v-.797c0-.243-.16-.403-.402-.403-.239 0-.399.16-.399.403v.796h-.402V2c0-.238-.156-.398-.399-.398-.238 0-.398.16-.398.398v.398c-.242 0-.402.16-.402.403 0 .238.16.398.402.398v.403c0 .238.16.398.398.398.243 0 .399-.16.399-.398v-.403h.402V4c0 .238.16.398.399.398.242 0 .402-.16.402-.398v-.8h.398v1.198c0 .243.16.403.399.403.242 0 .402-.16.402-.403V3.2h.399v1.602c0 .238.16.398.402.398.238 0 .398-.16.398-.398V3.199h.399v2c0 .242.16.403.402.403.238 0 .399-.16.399-.403v-2h.402v2c0 .242.16.403.398.403.239 0 .399-.16.399-.403v-2h.402v2c0 .242.16.403.399.403.242 0 .402-.16.402-.403v-2h.398v2c0 .242.16.403.399.403.242 0 .402-.16.402-.403v-2h.399v1.602c0 .238.16.398.402.398.238 0 .398-.16.398-.398V3.199h.399v1.2c0 .242.16.402.402.402.238 0 .399-.16.399-.403V3.2h.402V4c0 .238.156.398.398.398.239 0 .399-.16.399-.398v-.8h.402v.402c0 .238.16.398.399.398.242 0 .402-.16.402-.398v-.403h.398v.403c0 .238.16.398.399.398.242 0 .402-.16.402-.398v-.403h.399v.242c0 .52.44.957.96.957h4.239V1.2zm3.438 2.402h-3.438c-.082 0-.16-.082-.16-.16V2.16a.17.17 0 0 1 .16-.16h3.438zm0 0"/>
</svg>
